account-box-multiple-outline.svg

<svg fill="currentColor" viewBox="0 0 24 24"><path d="M4 6H2v14a2 2 0 0 0 2 2h14v-2H4zm14.5 8.25c0-1.5-3-2.25-4.5-2.25s-4.5.75-4.5 2.25V15h9M14 10.25c1.24 0 2.25-1.01 2.25-2.25S15.24 5.75 14 5.75 11.75 6.76 11.75 8s1.01 2.25 2.25 2.25M20 2H8c-1.1 0-2 .9-2 2v12a2 2 0 0 0 2 2h12c1.11 0 2-.89 2-2V4a2 2 0 0 0-2-2m0 14H8V4h12z"/></svg>

<svg  viewBox="0 0 24 24" fill="currentColor"><path  d="M4 6H2V20C2 21.11 2.9 22 4 22H18V20H4V6M18.5 14.25C18.5 12.75 15.5 12 14 12S9.5 12.75 9.5 14.25V15H18.5M14 10.25C15.24 10.25 16.25 9.24 16.25 8S15.24 5.75 14 5.75 11.75 6.76 11.75 8 12.76 10.25 14 10.25M20 2H8C6.9 2 6 2.9 6 4V16C6 17.11 6.9 18 8 18H20C21.11 18 22 17.11 22 16V4C22 2.89 21.1 2 20 2M20 16H8V4H20V16Z"/></svg>
